SOGoS-UI/src/images/TacticalIcon.svg

<?xml version="1.0" encoding="UTF-8" standalone="no"?>
<svg
        xmlns:dc="http://purl.org/dc/elements/1.1/"
        xmlns:cc="http://creativecommons.org/ns#"
        xmlns:rdf="http://www.w3.org/1999/02/22-rdf-syntax-ns#"
        xmlns="http://www.w3.org/2000/svg"
        xmlns:sodipodi="http://sodipodi.sourceforge.net/DTD/sodipodi-0.dtd"
        xmlns:inkscape="http://www.inkscape.org/namespaces/inkscape"
        width="290.33881mm"
        height="311.29276mm"
        viewBox="0 0 290.33881 311.29275"
        version="1.1"
        id="svg8"
        inkscape:version="0.92.4 (f8dce91, 2019-08-02)"
        sodipodi:docname="TacticalIcon.svg">
  <defs
     id="defs2" />
  <sodipodi:namedview
     id="base"
     pagecolor="#ffffff"
     bordercolor="#666666"
     borderopacity="1.0"
     inkscape:pageopacity="0.0"
     inkscape:pageshadow="2"
     inkscape:zoom="0.08838835"
     inkscape:cx="141.81478"
     inkscape:cy="417.16688"
     inkscape:document-units="mm"
     inkscape:current-layer="layer1"
     showgrid="true"
     fit-margin-top="0"
     fit-margin-left="0"
     fit-margin-right="0"
     fit-margin-bottom="0"
     inkscape:window-width="923"
     inkscape:window-height="918"
     inkscape:window-x="0"
     inkscape:window-y="27"
     inkscape:window-maximized="0" />
  <metadata
     id="metadata5">
    <rdf:RDF>
      <cc:Work
         rdf:about="">
        <dc:format>image/svg+xml</dc:format>
        <dc:type
           rdf:resource="http://purl.org/dc/dcmitype/StillImage" />
        <dc:title></dc:title>
      </cc:Work>
    </rdf:RDF>
  </metadata>
  <g
     inkscape:label="Layer 1"
     inkscape:groupmode="layer"
     id="layer1"
     transform="translate(66.939234,44.41366)">
    <path
       style="fill:none;fill-opacity:1;stroke:#050505;stroke-width:19.66500092;stroke-linecap:round;stroke-linejoin:bevel;stroke-miterlimit:4;stroke-dasharray:78.66, 78.66;stroke-dashoffset:196.64996338;stroke-opacity:1;paint-order:stroke fill markers"
       id="path815"
       sodipodi:type="arc"
       sodipodi:cx="133.06517"
       sodipodi:cy="21.263914"
       sodipodi:rx="101.29762"
       sodipodi:ry="101.29762"
       sodipodi:start="0"
       sodipodi:end="6.2697463"
       sodipodi:open="true"
       d="M 234.36279,21.263914 A 101.29762,101.29762 0 0 1 133.4055,122.56097 101.29762,101.29762 0 0 1 31.769834,21.944579 101.29762,101.29762 0 0 1 132.04418,-80.028563 101.29762,101.29762 0 0 1 234.35365,19.902616"
       transform="rotate(46.407316)" />
    <path
       style="fill:#faac00;fill-opacity:1;stroke:none;stroke-width:2;stroke-linecap:round;stroke-linejoin:bevel;stroke-miterlimit:4;stroke-dasharray:none;stroke-dashoffset:0;stroke-opacity:1;paint-order:stroke fill markers"
       id="path819"
       sodipodi:type="arc"
       sodipodi:cx="76.285301"
       sodipodi:cy="111.44173"
       sodipodi:rx="19.777945"
       sodipodi:ry="19.777945"
       sodipodi:start="0"
       sodipodi:end="6.2697463"
       sodipodi:open="true"
       d="M 96.063246,111.44173 A 19.777945,19.777945 0 0 1 76.35175,131.21956 19.777945,19.777945 0 0 1 56.507803,111.57462 19.777945,19.777945 0 0 1 76.085958,91.664787 19.777945,19.777945 0 0 1 96.06146,111.17594" />
    <path
       style="fill:none;stroke:#000000;stroke-width:17.75200081;stroke-linecap:round;stroke-linejoin:round;stroke-miterlimit:4;stroke-dasharray:none;stroke-opacity:1"
       d="M 76.359285,28.131792 V -35.411243"
       id="path814"
       inkscape:connector-curvature="0" />
    <path
       inkscape:connector-curvature="0"
       id="path831"
       d="M 76.359285,257.87667 V 194.33364"
       style="fill:none;stroke:#000000;stroke-width:17.75200081;stroke-linecap:round;stroke-linejoin:round;stroke-miterlimit:4;stroke-dasharray:none;stroke-opacity:1" />
    <path
       style="fill:none;stroke:#000000;stroke-width:17.75200081;stroke-linecap:round;stroke-linejoin:round;stroke-miterlimit:4;stroke-dasharray:none;stroke-opacity:1"
       d="M 5.606212,110.85854 H -57.936817"
       id="path833"
       inkscape:connector-curvature="0" />
    <path
       inkscape:connector-curvature="0"
       id="path835"
       d="M 214.39716,110.85854 H 150.85413"
       style="fill:none;stroke:#000000;stroke-width:17.75200081;stroke-linecap:round;stroke-linejoin:round;stroke-miterlimit:4;stroke-dasharray:none;stroke-opacity:1" />
  </g>
</svg>

<?xml version="1.0" encoding="UTF-8"?>
<svg width="290.34mm" height="311.29mm" version="1.1" viewBox="0 0 290.34 311.29" xmlns="http://www.w3.org/2000/svg" xmlns:cc="http://creativecommons.org/ns#" xmlns:dc="http://purl.org/dc/elements/1.1/" xmlns:rdf="http://www.w3.org/1999/02/22-rdf-syntax-ns#">
 <metadata>
  <rdf:RDF>
   <cc:Work rdf:about="">
    <dc:format>image/svg+xml</dc:format>
    <dc:type rdf:resource="http://purl.org/dc/dcmitype/StillImage"/>
    <dc:title/>
   </cc:Work>
  </rdf:RDF>
 </metadata>
 <g transform="translate(66.939 44.414)">
  <path transform="rotate(46.407)" d="m234.36 21.264a101.3 101.3 0 0 1-100.96 101.3 101.3 101.3 0 0 1-101.64-100.62 101.3 101.3 0 0 1 100.27-101.97 101.3 101.3 0 0 1 102.31 99.931" fill="none" stroke="#050505" stroke-dasharray="78.66, 78.66" stroke-dashoffset="196.65" stroke-linecap="round" stroke-linejoin="bevel" stroke-width="19.665" style="paint-order:stroke fill markers"/>
  <path d="m96.063 111.44a19.778 19.778 0 0 1-19.711 19.778 19.778 19.778 0 0 1-19.844-19.645 19.778 19.778 0 0 1 19.578-19.91 19.778 19.778 0 0 1 19.976 19.511" fill="#faac00" style="paint-order:stroke fill markers"/>
  <g fill="none" stroke="#333831" stroke-linecap="round" stroke-linejoin="round" stroke-width="17.752">
   <path d="m76.359 28.132v-63.543"/>
   <path d="m76.359 257.88v-63.543"/>
   <path d="m5.6062 110.86h-63.543"/>
   <path d="m214.4 110.86h-63.543"/>
  </g>
 </g>
</svg>
